X:1
T:Sultan Polka, The
M:C
L:1/8
R:Polka
B:Stephen Grier music manuscript collection (Book 3, c. 1883, No. 172, p. 54)
B: http://grier.itma.ie/book-three#?c=0&m=0&s=0&cv=53&z=91.7404%2C1746.3436%2C2876.4366%2C1197.8184
N:Stephen Grier (c. 1824-1894) was a piper and fiddler from
N:Newpark, Bohey, Gortletteragh, south Co. Leitrim.
Z:AK/Fiddler’s Companion
K:G
B2B2 AA G2|FGAB dc c2|cc B2 AB/A/ G2|GFEF AG G2:|
|:D2|GG cd e3e|ff AA f2 ef|gg d2 ee c2|1 dd AB cBAG:|2 d2 Ad cBAG||

